.local/share/icons/Gruvbox-Plus-Dark/panel/24/org.sparkleshare.SparkleShare-syncing-down.svg

<svg xmlns="http://www.w3.org/2000/svg" width="24" height="24" version="1.1">
 <defs>
  <style id="current-color-scheme" type="text/css">
   .ColorScheme-Text { color:#ebdbb2; } .ColorScheme-Highlight { color:#458588; }
  </style>
 </defs>
 <path style="fill:currentColor" class="ColorScheme-Text" d="M 5.1425781,4 C 5.1425781,4 4,4.04269 4,5.1855469 V 17.857422 C 4,17.857422 3.9997211,19 5.1425781,19 H 13.423828 A 5,5 0 0 1 13,17 5,5 0 0 1 13.017578,16.65625 L 12,15.994141 10.107422,17.228516 C 9.3248899,17.740989 8.2917154,17.039531 8.5683594,16.183594 L 9.2382812,14.013672 7.3984375,12.708984 c -0.762136,-0.5395 -0.3672864,-1.676829 0.5878906,-1.693359 l 2.3066409,-0.04297 0.757812,-2.3417966 c 0.144719,-0.3909099 0.544846,-0.6476257 0.986328,-0.6328125 0.414219,0.014758 0.77635,0.2660006 0.91211,0.6328125 l 0.757812,2.3417966 2.308594,0.04297 c 0.669504,0.01278 1.050788,0.574638 0.962891,1.095703 A 5,5 0 0 1 18,12 5,5 0 0 1 20,12.419922 V 7.171875 C 20,6.0290178 18.857422,6.0292969 18.857422,6.0292969 H 13.142578 L 10.857422,4 Z m 6.8457029,4.9785156 -0.757812,2.3417964 c -0.142852,0.385434 -0.506995,0.644244 -0.917969,0.652344 l -2.1679688,0.04102 1.671875,1.185547 c 0.3562388,0.252723 0.5072788,0.707404 0.3730468,1.123047 l -0.6367186,2.068359 c 0.0046,-0.0024 0.00141,0.0041 0.00781,0 L 11.455078,15.15625 c 0.331831,-0.216172 0.759966,-0.216172 1.091797,0 l 0.660156,0.429688 a 5,5 0 0 1 0.597657,-1.298829 c -0.115009,-0.405949 0.03263,-0.842244 0.378906,-1.08789 l 1.671875,-1.185547 -2.166016,-0.04102 c -0.411693,-0.0073 -0.77681,-0.266255 -0.919922,-0.652344 L 12.013672,8.9785156 h -0.002 c 0.01242,0.03376 0.01358,0.020378 -0.0098,0.017578 -0.02307,0.00225 -0.02626,0.016432 -0.01367,-0.017578 z"/>
 <path style="fill:currentColor" class="ColorScheme-Text" d="m 18,13 c -2.2091,0 -4,1.7909 -4,4 0,2.2091 1.7909,4 4,4 2.2091,0 4,-1.7909 4,-4 0,-2.2091 -1.7909,-4 -4,-4 z m -1,2 h 2 v 2 h 1.5 L 19.25,18.5 18,20 16.75,18.5 15.5,17 H 17 Z"/>
</svg>

<svg width="24" height="24" version="1.1" xmlns="http://www.w3.org/2000/svg">
  <defs>
    <style id="current-color-scheme" type="text/css">.ColorScheme-Text { color:#ebdbb2; } .ColorScheme-Highlight { color:#458588; } .ColorScheme-NeutralText { color:#fe8019; } .ColorScheme-PositiveText { color:#689d6a; } .ColorScheme-NegativeText { color:#fb4934; }</style>
  </defs>
  <path class="ColorScheme-Text" d="m5.143 4s-1.143 0.04269-1.143 1.186v12.67s-2.789e-4 1.143 1.143 1.143h8.281a5 5 0 0 1-0.4238-2 5 5 0 0 1 0.01758-0.3438l-1.018-0.6621-1.893 1.234c-0.7825 0.5125-1.816-0.189-1.539-1.045l0.6699-2.17-1.84-1.305c-0.7621-0.5395-0.3673-1.677 0.5879-1.693l2.307-0.04297 0.7578-2.342c0.1447-0.3909 0.5448-0.6476 0.9863-0.6328 0.4142 0.01476 0.7764 0.266 0.9121 0.6328l0.7578 2.342 2.309 0.04297c0.6695 0.01278 1.051 0.5746 0.9629 1.096a5 5 0 0 1 1.021-0.1113 5 5 0 0 1 2 0.4199v-5.248c0-1.143-1.143-1.143-1.143-1.143h-5.715l-2.285-2.029zm6.846 4.979-0.7578 2.342c-0.1429 0.3854-0.507 0.6442-0.918 0.6523l-2.168 0.04102 1.672 1.186c0.3562 0.2527 0.5073 0.7074 0.373 1.123l-0.6367 2.068c0.0046-0.0024 0.00141 0.0041 0.00781 0l1.895-1.234c0.3318-0.2162 0.76-0.2162 1.092 0l0.6602 0.4297a5 5 0 0 1 0.5977-1.299c-0.115-0.4059 0.03263-0.8422 0.3789-1.088l1.672-1.186-2.166-0.04102c-0.4117-0.0073-0.7768-0.2663-0.9199-0.6523l-0.7559-2.342h-2e-3c0.01242 0.03376 0.01358 0.02038-0.0098 0.01758-0.02307 0.00225-0.02626 0.01643-0.01367-0.01758z" fill="currentColor"/>
  <path class="ColorScheme-Text" d="m18 13c-2.209 0-4 1.791-4 4s1.791 4 4 4 4-1.791 4-4-1.791-4-4-4zm-1 2h2v2h1.5l-2.5 3-2.5-3h1.5z" fill="currentColor"/>
</svg>
